X:1
T: Don't Look Back in Anger
C: Lyricist: Noel Gallagher
C: Composer: Noel Gallagher
M:4/4
K:C
Q:1/4=82
%%MIDI chordprog 1
%%MIDI program 1
P: Intro
"C"ECEC ECEC|"F"ACAC CE/F/G2|"C"ECEC ECEC|"F"AC G/A/G z/DE/DC|
P: Verse
"C"e/d d3/c "G"dc/e/ -ed|"Am"-d/c/ A2c "E"dc/e/ -ed| "F"-d/c/ A3 "G"zc/A/ cA/c/|"C"-c/A/ G2G "Am"AA/ G/"G"-G2/G|
